fa/svgs/brands/figma.svg

<svg xmlns="http://www.w3.org/2000/svg" viewBox="0 0 384 512"><!--! Font Awesome Free 6.2.1 by @fontawesome - https://fontawesome.com License - https://fontawesome.com/license/free (Icons: CC BY 4.0, Fonts: SIL OFL 1.1, Code: MIT License) Copyright 2022 Fonticons, Inc. --><path d="M14 95.7924C14 42.8877 56.8878 0 109.793 0H274.161C327.066 0 369.954 42.8877 369.954 95.7924C369.954 129.292 352.758 158.776 326.711 175.897C352.758 193.019 369.954 222.502 369.954 256.002C369.954 308.907 327.066 351.795 274.161 351.795H272.081C247.279 351.795 224.678 342.369 207.666 326.904V415.167C207.666 468.777 163.657 512 110.309 512C57.5361 512 14 469.243 14 416.207C14 382.709 31.1945 353.227 57.2392 336.105C31.1945 318.983 14 289.5 14 256.002C14 222.502 31.196 193.019 57.2425 175.897C31.196 158.776 14 129.292 14 95.7924ZM176.288 191.587H109.793C74.2172 191.587 45.3778 220.427 45.3778 256.002C45.3778 291.44 73.9948 320.194 109.381 320.416C109.518 320.415 109.655 320.415 109.793 320.415H176.288V191.587ZM207.666 256.002C207.666 291.577 236.505 320.417 272.081 320.417H274.161C309.737 320.417 338.576 291.577 338.576 256.002C338.576 220.427 309.737 191.587 274.161 191.587H272.081C236.505 191.587 207.666 220.427 207.666 256.002ZM109.793 351.795C109.655 351.795 109.518 351.794 109.381 351.794C73.9948 352.015 45.3778 380.769 45.3778 416.207C45.3778 451.652 74.6025 480.622 110.309 480.622C146.591 480.622 176.288 451.186 176.288 415.167V351.795H109.793ZM109.793 31.3778C74.2172 31.3778 45.3778 60.2173 45.3778 95.7924C45.3778 131.368 74.2172 160.207 109.793 160.207H176.288V31.3778H109.793ZM207.666 160.207H274.161C309.737 160.207 338.576 131.368 338.576 95.7924C338.576 60.2173 309.737 31.3778 274.161 31.3778H207.666V160.207Z"/></svg>

<svg xmlns="http://www.w3.org/2000/svg" viewBox="0 0 384 512"><!--! Font Awesome Free 6.1.1 by @fontawesome - https://fontawesome.com License - https://fontawesome.com/license/free (Icons: CC BY 4.0, Fonts: SIL OFL 1.1, Code: MIT License) Copyright 2022 Fonticons, Inc.--><path d="M14 95.792C14 42.888 56.888 0 109.793 0h164.368c52.905 0 95.793 42.888 95.793 95.792 0 33.5-17.196 62.984-43.243 80.105 26.047 17.122 43.243 46.605 43.243 80.105 0 52.905-42.888 95.793-95.793 95.793h-2.08c-24.802 0-47.403-9.426-64.415-24.891v88.263c0 53.61-44.009 96.833-97.357 96.833C57.536 512 14 469.243 14 416.207c0-33.498 17.195-62.98 43.24-80.102C31.193 318.983 14 289.5 14 256.002c0-33.5 17.196-62.983 43.242-80.105C31.197 158.776 14 129.292 14 95.792Zm162.288 95.795h-66.495c-35.576 0-64.415 28.84-64.415 64.415 0 35.438 28.617 64.192 64.003 64.414l.412-.001h66.495V191.587Zm31.378 64.415c0 35.575 28.839 64.415 64.415 64.415h2.08c35.576 0 64.415-28.84 64.415-64.415s-28.839-64.415-64.415-64.415h-2.08c-35.576 0-64.415 28.84-64.415 64.415Zm-97.873 95.793-.412-.001c-35.386.221-64.003 28.975-64.003 64.413 0 35.445 29.225 64.415 64.931 64.415 36.282 0 65.979-29.436 65.979-65.455v-63.372h-66.495Zm0-320.417c-35.576 0-64.415 28.84-64.415 64.414 0 35.576 28.84 64.415 64.415 64.415h66.495V31.377h-66.495Zm97.873 128.829h66.495c35.576 0 64.415-28.839 64.415-64.415 0-35.575-28.839-64.414-64.415-64.414h-66.495v128.829Z"/></svg>
